X:2648
T:Hornpipe,A. JMT011
T:Liverpool Hornpipe. JMT011
O:england
M:C
L:1/8
Q:180
S:John Moore,Tyneside,1841. (07)
R:Hornpipe
A:Northumbria
H:1841
K:D
AG  |  (FD)FA (df)af | (gf)ed (dc)BA | GBGB FAFA | EBA.G (GF)ED| (FD)FA
(
d
f)af | (gf)ed (dc)BA | (af)ed B-gec | d2d2d2 :|
|:A2|d-efd cdec|Beed d-cBA|GBGB FAFA|EBA.G .GFED|F-DFA d-faf|g-fed d-cB
A|afed B-gec|d2d2d2:|]


